X:1
T:Partita II (A = 415 Hz)
T:BWV 826
T:J.S. Bach
%%score { ( 1 2 5 ) | ( 3 4 6 ) }
L:1/8
Q:1/4=60
M:4/4
K:Eb
V:1 treble nm="Harp"
V:2 treble 
V:5 treble 
V:3 bass 
V:4 bass 
V:6 bass 
V:1
"^Lent""^Sinfonia" e2 z/ e/d/>e/ f2 z/ f/f/>g/ | a>a a/g/4f/<g/d/4 e2 z/ g/g/>a/ | %2
 b2 z/ B/B/>c/ _d>d =e2 | f2 z/ f/g/>a/ d2 z/ d/g/>e/ | c2- c/4e/4_d/4c/<d/f/4 =B/>c/B/>c/ =d2- | %5
 d4- d/>G/=A/>=B/ c/>[GB]/[Ac]/>[Bd]/ | e>e ^f2 g4 | %7
[Q:1/4=60] G/c/4d/4e- e/d/4c/4e/4d/4c/4=B/4 c/G/A/F/ G/c/G/F/ | %8
 E/c/4d/4e/4d/4c/ g/c/a/c/ =B/c/d/B/ G/ z/ z | %9
 g/4f/4e/4d/4c/B/- B/_dc/ a/4g/4f/4=e/4f- f/4g/4a/4g/4f/4_e/4=d/4e/4 | %10
 f/4e/4d/4c/4B/A/- A/cB/ g/4f/4e/4d/4e- e/4f/4g/4f/4e/4d/4c/4=B/4 | %11
 c/4B/4A/4G/4F/e/- e/d/4c/4e/4d/4c/4=B/4 c/4d/4e/4f/4g/c/- c/B/4c/4d/4c/4B/4c/4 | %12
 a/4g/4f/4=e/4f/_d/- d/c/4d/4_e/4d/4c/4d/4 g/4f/4e/4=d/4e/c/- c/=B/4c/4d/4c/4B/4c/4 | %13
 f/4c/4=B/4=A/4B/d/ f/4_B/4_A/4G/4A/c/ f/4A/4G/4F/4G- G/4f/4g/4a/4g/f/ | %14
 g/=Bc/- c/_B/4A/4G/4F/4E/4D/4 E/4G/4F/4E/4F/4E/4D/4E/4 DC | %15
 z G- G/4A/4G/4F/4G/A/ B/d/e- e/4B/4e/4f/4g/e/ | %16
 _d/c/f- f/4c/4f/4g/4a/f/ e/c/=d- d/4f/4g/4a/4b/4a/4g/4a/4 | %17
 b/4a/4g/-g/4f/4=e/- e/4d/4c/-c/4g/4a/4b/4 a/4g/4f/-f/4_e/4_d/- d/4c/4B/-B/4f/4g/4a/4 | %18
 g/4f/4=e/4f/4b/4f/4e/4f/4 a/4f/4e/4f/4g/4f/4e/4f/4 f2- f/4_e/4d/4e/4f/4d/4e/4f/4 | %19
 B/4d/4f/4g/4a- a/4g/4f/4a/4g/4f/4e/4d/4 e/4B/4e/4f/4g- g/4f/4e/4g/4f/4e/4d/4c/4 | %20
 b/4=a/4g/4^f/4e/d/- d/4g/4a/4b/4^c/d/- d/4f/4g/4a/4=c/4e/4d/4c/4 f/4d/4=e/4f/4g/4a/4b/4c'/4 | %21
 b/4=a/4g/4^f/4-f/g/- g/de/- e/=Bc/- c/4_B/4A/4G/4A/c/ | %22
 ^F/4e/4d/4c/<b/a/4 g(4:3:4g/4^f/4g/4f/4g/4 g2- g/4=f/4g/4a/4g/4f/4e/4d/4 | %23
 f/4e/4d/4c/4g- g/4e/4f/4g/4f/4e/4d/4c/4 e/4d/4c/4B/4g- g/4d/4e/4f/4e/4d/4c/4B/4 | %24
 d/4c/4B/4=A/4g- g/4c/4d/4e/4d/4c/4B/4A/4 c/4B/4A/4G/4g- g/4B/4c/4d/4c/4B/4A/4G/4 | %25
 A2- A/4A/4G/4A/4B/4A/4G/4A/4 e2- e/4c/4=B/4c/4d/4c/4B/4c/4 | %26
 ^f/ed/ g/dc/ =a/cB/- B/4d/4c/4B/4g/4B/4=A/4G/4 | %27
 !fermata!b-b/4=a/4g/4^f/4 g/4b/4a/4g/4f/4=e/4d/4c/4 B/4d/4c/4_e/4d/4g/4f/4=e/4 d/4c/4B/4=A/4B/4d/4B/4G/4 | %28
 z/ =e/4^f/4g/4f/8g/8f/8e/8f/8g/8 B/4=A/4G/4^F/4G/<B/- B/c/4B/4A/4B/4c/4A/4 F>G | %29
[M:3/4][Q:1/4=132]"^Allegro" GG/=A/ =Bc de | f/e/d/e/ fg ad | f=B dG g/f/e/d/ | %32
 e c'2 b/a/ g/f/e/d/ | c2- c/d/=e/f/ g/a/b/g/ | =e_d'- d'/g/a/b/ a/g/f/e/ | %35
 f/g/a- a/g/f/e/ d/c/d/f/ | e/f/g- g/f/e/d/ c/=B/c/e/ | d/a/d/c/ d/e/f/g/ f/e/d/c/ | %38
 =B/g/f/e/ d/f/d/c/ B/d/B/=A/ | G/=A/=B/c/ d/c/B/c/ d/e/f/d/ | =B/c/d/e/ f/a/g/f/ e/d/c/_B/ | %41
 c/d/e/c/ =Ac Fe | B/c/d/B/ GB Ed | =A/B/c/A/ ^FA Dc | G/=A/B/G/ E/G/D/G/ ^C/B/A/G/ | %45
 ^F/=E/D/E/ FG =AB | c/B/=A/B/ cd eA | c^F =AD d/c/B/A/ | B/=A/G/A/ Bc de | %49
 f/e/d/c/ B/f/c/B/ A/f/B/A/ | G/F/E/F/ G=A =Bc | d/c/=B/=A/ G/d/_A/G/ d/c/B/=A/ | %52
 E/c/G/F/ E/F/G/A/ G/c/G/F/ | E/c/G/F/ E/F/G/A/ G/c/G/F/ | =E/B/G/F/ E/F/G/A/ G/B/G/F/ | %55
 =E/B/G/F/ E/G/B/_d/ c/B/A/G/ | A/f/c/B/ A/B/c/_d/ c/f/c/B/ | A/f/c/B/ A/B/c/_d/ c/f/c/B/ | %58
 =A/f/c/B/ A/B/c/_d/ c/f/c/B/ | =A/e/c/B/ A/c/e/_g/ f/e/_d/c/ | _dB cd ed | cA Bc _dc | BA BG AB | %63
 =E/D/C/D/ EF GA | B/A/G/A/ Bc _dG | B=E GC c/B/A/G/ | A/G/F- F/A/G/F/ E/D/C/B,/ | %67
 G/F/E- E/G/F/E/ D/C/=B,/C/ | F/E/D- D/F/E/D/ C/=B,/=A,/G,/ | E/F/G- GF/E/ D/=A/=B/c/ | %70
 d/c/=B/c/ d/g/f/e/ d/c/B/=A/ | G2- G/=A/=B/c/ d/e/f/d/ | =Ba- a/d/e/f/ e/d/c/B/ | %73
 c2- c/g/_d/c/ B/e/B/A/ | G/A/B/c/ _dB g2- | gc/B/ A/f/B/A/ G/_d/G/F/ | %76
 =E/F/G/A/ BG f/4e/4f/4e/4f/4e/4d/4e/4 | fF/G/ AB cd | e/d/c/d/ ef ga | %79
 =B/g/d/c/ B/c/d/e/ d/g/d/c/ | =B/g/d/c/ B/c/d/e/ d/g/d/c/ | =B/f/d/c/ B/c/d/e/ d/f/d/c/ | %82
 =B/f/d/c/ B/d/f/a/ g/f/e/d/ | e/f/g/e/ c/f/e/d/ d/c/B/A/ | G/A/B- B/c/B/A/ G/F/=E/D/ | %85
 C/G/C/B,/ C/D/=E/F/ E/G/C/B,/ | C/G/F/=E/ F/C/F/G/ A/B/c/d/ | e/d/c/d/ ef/g/ a_d | %88
 f=B dG g/f/e/d/ | e>c c2 c/4=B/4c/4B/4c/4B/4c/ | c4 z2 | %91
[M:2/2][Q:1/4=110]"^Allemande" z4 z2 z/ a/g/f/ | g/d/e/=B/ c/f/e/d/ e/B/c/G/ A/d/c/B/ | %93
 c/G/A/E/ F/e/d/c/ c/4=B/4c/4B/4c/4B/4=A/ GB | c/d/e F/e/d/c/ d/e/f G/f/e/d/ | %95
 e/f/g A/g/f/e/ f/g/a =B/a/g/f/ | e2- e>c d2- d>=B | c3 c/=B/ c2- c/c/_B/A/ | %98
 G/c/4d/4e/c/ GA B2- Bg- | g/c/4d/4e/c/ =A/f/c/4d/4e/ d2- dd | %100
 dd/4c/4d/4c/4 z/ ^f/g/=a/ ee/4d/4e/4d/4 z/ g/a/b/ | %101
 ff/4=e/4f/4e/4 z/ =a/b/c'/ gg/4^f/4g/4f/4 z/ _e/d/c/ | d/=A/B/^F/ G/c/B/A/ B/F/G/D/ E/A/G/F/ | %103
 G/D/E/=B,/ C/F/E/D/ E/C/D/^F/ =A/E/D/C/ | B,/D/G/B/- B/^F/G/B,/ C/E/G/B/- B/F/G/C/ | %105
 D/^F/G/B/- B/F/G/D/ E/F/G/B/- B/F/G/B/ | =e/=A/B/^F/ G/B/A/G/ F/D/E/B,/ C/E/D/C/ | %107
 B,d B=A/G/ G2- G/ a/g/f/ | g/d/e/=B/ c/f/e/d/ e/B/c/G/ A/d/c/B/ | %109
 c/G/A/E/ F/e/d/c/ c/4=B/4c/4B/4c/4B/4=A/ GB | c/d/e F/e/d/c/ d/e/f G/f/e/d/ | %111
 e/f/g A/g/f/e/ f/g/a =B/a/g/f/ | e2- e>c d2- d>=B | c3 c/=B/ c2- c/c/_B/A/ | %114
 G/c/4d/4e/c/ GA B2- Bg- | g/c/4d/4e/c/ =A/f/c/4d/4e/ d2- dd | %116
 dd/4c/4d/4c/4 z/ ^f/g/=a/ ee/4d/4e/4d/4 z/ g/a/b/ | %117
 ff/4=e/4f/4e/4 z/ =a/b/c'/ gg/4^f/4g/4f/4 z/ _e/d/c/ | d/=A/B/^F/ G/c/B/A/ B/F/G/D/ E/A/G/F/ | %119
 G/D/E/=B,/ C/F/E/D/ E/C/D/^F/ =A/E/D/C/ | B,/D/G/B/- B/^F/G/B,/ C/E/G/B/- B/F/G/C/ | %121
 D/^F/G/B/- B/F/G/D/ E/F/G/B/- B/F/G/B/ | =e/=A/B/^F/ G/B/A/G/ F/D/E/B,/ C/E/D/C/ | %123
 B,d B=A/G/ G2- G/ e/d/c/ | d/=A/=B/G/ _A/F/E/D/ E/F/4G/4C z/ a/g/f/ | %125
 g/d/=e/c/ _d/B/A/G/ A/B/4c/4F z/ C/F/G/ | A/=E/F/C/ _D/c/B/A/ B/F/G/=D/ E/_d/c/B/ | %127
 c/G/A/=E/ F/e/_d/c/ d/=A/B/G/ g2- | g/c/f/=e/ a/g/f/e/ f/c/_e/_d/ b/a/g/f/ | %129
 =e/f/4g/4c/B/ A/f/G/e/ f2- f/4g/4f/4e/4f/g/ | a/=e/f/c/ A/F/_e/c/ d/=A/B/d/ f/a/g/f/ | %131
 g/d/e/B/ G/E/d/=B/ c/G/A/c/ e/g/f/e/ | f/c/d/A/ F/D/c/=A/ =B/^F/G/B/ d/f/e/d/ | %133
 e/=B/c/A/ G/F/e/d/ c/B/c/d/ Gd/4c/4d/ | e/g/c'/g/ e/d/c/=B/ c/e/g- g/_B/A/G/ | %135
 A/c/f/c/ A/G/F/=E/ F/=B/d- d/F/_E/D/ | Ce AG Df AG | Eg AG Fa/g/ a/g/^f/g/ | %138
 g/4^f/4g/4f/4 g/4f/4g/4f/4 g/4f/4g/4f/4 g/4f/4=e/4f/4 g/d/=f/_e/ d/c/=B/=A/ | %139
 G!arpeggio!g ed/c/ c2 z/ e/d/c/ | d/=A/=B/G/ _A/F/E/D/ E/F/4G/4C z/ a/g/f/ | %141
 g/d/=e/c/ _d/B/A/G/ A/B/4c/4F z/ C/F/G/ | A/=E/F/C/ _D/c/B/A/ B/F/G/=D/ E/_d/c/B/ | %143
 c/G/A/=E/ F/e/_d/c/ d/=A/B/G/ g2- | g/c/f/=e/ a/g/f/e/ f/c/_e/_d/ b/a/g/f/ | %145
 =e/f/4g/4c/B/ A/f/G/e/ f2- f/4g/4f/4e/4f/g/ | a/=e/f/c/ A/F/_e/c/ d/=A/B/d/ f/a/g/f/ | %147
 g/d/e/B/ G/E/d/=B/ c/G/A/c/ e/g/f/e/ | f/c/d/A/ F/D/c/=A/ =B/^F/G/B/ d/f/e/d/ | %149
 e/=B/c/A/ G/F/e/d/ c/B/c/d/ Gd/4c/4d/ | e/g/c'/g/ e/d/c/=B/ c/e/g- g/_B/A/G/ | %151
 A/c/f/c/ A/G/F/=E/ F/=B/d- d/F/_E/D/ | Ce AG Df AG | Eg AG Fa/g/ a/g/^f/g/ | %154
 g/4^f/4g/4f/4 g/4f/4g/4f/4 g/4f/4g/4f/4 g/4f/4=e/4f/4 g/d/=f/_e/ d/c/=B/=A/ | %155
 G!arpeggio!g ed/c/ !fermata!c2 z2 |[M:3/2]"^Courante" z8 z2 z c | c2- c/G/=A/=B/ cdec a3 a | %158
 g8- g2 f2- | f/a/g/f/gd e4- eedc | c/4=B/4c/4B/4c/4B/4c/4B/4 c/4B/4c/4B/4 c d4- dceg | %161
 b/a/g/f/af g4- gagf | f/4e/4d/4e/4f/4e/4f/4e/4 f/4e/4d/c/=B/ cdef gf/e<bb/ | %163
 !arpeggio!b2- b/a/g/f/ g4- ggfe | d4- d3 d- dB c2- | c/e/d/c/d=A Bdgb- bb=ag | %166
 g/4^f/4g/4f/4g/4f/4g/4f/4 g/4f/4g/4f/4g =a4- a/g/=f/e/fd | %167
 e/d/c/=B/c^f gG c/_B/=A B/4A/4B/4A/4B/4A/4B/4A/4 B/4A/4B/4A/4 G | G6 G4 z c | %169
 c2- c/G/=A/=B/ cdec a3 a | g8- g2 f2- | f/a/g/f/gd e4- eedc | %172
 c/4=B/4c/4B/4c/4B/4c/4B/4 c/4B/4c/4B/4 c d4- dceg | b/a/g/f/af g4- gagf | %174
 f/4e/4d/4e/4f/4e/4f/4e/4 f/4e/4d/c/=B/ cdef gf/e<bb/ | !arpeggio!b2- b/a/g/f/ g4- ggfe | %176
 d4- d3 d- dB c2- | c/e/d/c/d=A Bdgb- bb=ag | %178
 g/4^f/4g/4f/4g/4f/4g/4f/4 g/4f/4g/4f/4g =a4- a/g/=f/e/fd | %179
 e/d/c/=B/c^f gG c/_B/=A B/4A/4B/4A/4B/4A/4B/4A/4 B/4A/4B/4A/4 G | G6 G4 z d | %181
 d2- d/g/f/e/ dc=Bc/d/ G/4F/4G/- G2 G | [Gdf-]4 fagf edc=B | z/ e/f/g/ a2 g4 z dfg | %184
 fedc e/4d/4e/- e2 e A/4G/4F/4G/4A/4G/4A/4G/4 A/4G/4A/4G/4 A | B4- B/_d/c/B/=ef g3 g- | %186
 g/g/f/=e/ f/g/a/f/ b3 a g3 c' | bagf e2 e/4d/4e/4d/4e/4d/4e/ f4- | %188
 f/B/c/d/ e2- e/d/e/f/ g2- g2 f2- | f/a/g/f/gd ef/g/ce- eedc | %190
 c/4=B/4c/4B/4c/4B/4c/4B/4 c/4B/4c/4B/4 c d4- d/c/_B/A/BG | %191
 A/G/F/=E/F=B cG f/e/d e/4d/4c/4d/4e/4d/4e/4d/4 e/4d/4e/4d/4 c | c6 c4 z d | %193
 d2- d/g/f/e/ dc=Bc/d/ G/4F/4G/- G2 G | [Gdf-]4 fagf edc=B | z/ e/f/g/ a2 g4 z dfg | %196
 fedc e/4d/4e/- e2 e A/4G/4F/4G/4A/4G/4A/4G/4 A/4G/4A/4G/4 A | B4- B/_d/c/B/=ef g3 g- | %198
 g/g/f/=e/ f/g/a/f/ b3 a g3 c' | bagf e2 e/4d/4e/4d/4e/4d/4e/ f4- | %200
 f/B/c/d/ e2- e/d/e/f/ g2- g2 f2- | f/a/g/f/gd ef/g/ce- eedc | %202
 c/4=B/4c/4B/4c/4B/4c/4B/4 c/4B/4c/4B/4 c d4- d/c/_B/A/BG | %203
 A/G/F/=E/F=B cG f/e/d e/4d/4c/4d/4e/4d/4e/4d/4 e/4d/4e/4d/4 c | c6 c4 z2 | z12 | %206
[M:3/4]"^Sarabande"[Q:1/4=80] G/c/d/e/ F/e/d- d/F/G/A/ | G/d/e/f/ e/=B/c- c/G/A/_B/ | %208
 B/e/f/g/ =B/f/g/a/ c/g/f/e/ | d/e/f/d/ c/4=B/4c/4B/4c/4B/4c/4B/4 G2 | e/G/A/B/ A/G/F- F/c/d/e/ | %211
 d/F/G/A/ G/F/E- E/B/c/_d/ | c/G/F/E/ D/c/B/A/ f>[B,DFA] | [B,DFA]2 [B,EG]4 | %214
 G/c/d/e/ F/e/d- d/F/G/A/ | G/d/e/f/ e/=B/c- c/G/A/_B/ | B/e/f/g/ =B/f/g/a/ c/g/f/e/ | %217
 d/e/f/d/ c/4=B/4c/4B/4c/4B/4c/4B/4 G2 | e/G/A/B/ A/G/F- F/c/d/e/ | d/F/G/A/ G/F/E- E/B/c/_d/ | %220
 c/G/F/E/ D/c/B/A/ f>[B,DFA] | [B,DFA]2 [B,EG]4 | B/e/g- g/c/B/A/ B/e/f/g/ | %223
 f/=a/b- b/g/f/e/ f/B/=A/B/ | e/d/c- c/g/f/e/ =a/b/c'- | c'/e/d/c/ d/f/d/=A/ B2- | %226
 B/_d/c/B/ g/B/A/G/ A/c/f/g/ | =a/_g/f/e/ c'/e/_d/c/ d/f/b/_a/ | _g/f/=e/f/ _d/c/=B/c/ a/=g/f/e/ | %229
 f/c/_d/=e/ f/B/A/G/ F2- | F/e/d/c/ d/a/B/f/ g/A/G/F/ | E/d/c/=B/ c/g/A/e/ f/G/F/E/ | %232
 D/c/=B/=A/ B/f/G/d/ e/F/E/D/ | C/G/^F/=A/ c/A/=B/d/ G/f/e/d/ | e/g/c/=B/ c2- c/e/A/G/ | %235
 A2- A/c/F/=E/ F2- | F/A/_d/c/ =e/f/=B/c/ ^F/G/_e/B/ | c/F/E/D/ [EGc]4 | B/e/g- g/c/B/A/ B/e/f/g/ | %239
 f/=a/b- b/g/f/e/ f/B/=A/B/ | e/d/c- c/g/f/e/ =a/b/c'- | c'/e/d/c/ d/f/d/=A/ B2- | %242
 B/_d/c/B/ g/B/A/G/ A/c/f/g/ | =a/_g/f/e/ c'/e/_d/c/ d/f/b/_a/ | _g/f/=e/f/ _d/c/=B/c/ a/=g/f/e/ | %245
 f/c/_d/=e/ f/B/A/G/ F2- | F/e/d/c/ d/a/B/f/ g/A/G/F/ | E/d/c/=B/ c/g/A/e/ f/G/F/E/ | %248
 D/c/=B/=A/ B/f/G/d/ e/F/E/D/ | C/G/^F/=A/ c/A/=B/d/ G/f/e/d/ | e/g/c/=B/ c2- c/e/A/G/ | %251
 A2- A/c/F/=E/ F2- | F/A/_d/c/ =e/f/=B/c/ ^F/G/_e/B/ | c/F/E/D/ !fermata![EGc]4 | z6 | %255
[M:3/8]"^Rondeaux" c'ce/4d/4e/4d/4 | e2 f | gA z | fG z | eF z | dE z | z c/=B/c/d/ | =B/=A/G z | %263
 c'cd | e2 f | gA z | fG z | eF z | dE z | z/ c/D/F/c/=B/ | c3 | E/D/E/F/G/A/ | B/e/B/A/B- | %273
 B/f/B/A/B- | B/g/B/A/B- | B/_d/c/B/A/G/ | A/c/f/c/a- | a/f/a/g/f/=e/ | f3- | f/a/d/e/f/d/ | %280
 c/B/c/d/e/f/ | g/b/e/f/g/e/ | _d/c/=d/=e/f/g/ | a/c'/f/g/a/f/ | e/_d/c/=B/g- | g/c/f/e/d/c/ | %286
 =B/c/d/B/G | c'ce/4d/4c/4d/4 | e2 f | gA z | fG z | eF z | dE z | z c/=B/c/d/ | =B/=A/G z | c'cd | %296
 e2 f | gA z | fG z | eF z | dE z | z/ c/D/F/c/=B/ | c2 z | z/ e/c/G/A/E/ | F/A/d z | %305
 z/ d/B/^F/G/D/ | =E/G/c z | z/ c/A/=E/F/C/ | D/F/B z | z/ B/c/d/e/f/ | g/e/f/d/B/d/ | %311
 f/a/g/e/B/d/ | e/g/f/d/A/c/ | d/f/e/c/_G/=A/ | c/e/d/B/F/A/ | B/e/B/G/E/D/ | E/B/G/E/B,/A,/ | %317
 B,/G/E/B,/A,/D/ |[I:staff +1] G,/E/B,/G,/E, |[I:staff -1] z/ G/=A/=B/c/d/ | e/d/c/d/e/f/ | %321
 g/G/A/c/f- | f/F/G/B/e- | e/E/F/=B/d- | d/D/E/G/c- | c/=B/c/e/a/c/ | =B/=A/G z | c'cd | e2 f | %329
 gA z | fG z | eF z | dE z | z/ c/D/F/c/=B/ | c3 | e3- | e2 d/e/4f/4 |{e} d3- | de/f/g/e/ | c3- | %340
 c(3d/c/B/(3c/B/=A/ | (3B/=A/G/(3c/B/A/(3B/A/G/ | G/4^F/4=E/4F/4G/4F/4=A/d/c/ | B/=A/B/d/c/e/ | %344
 d/B/G/g/=A/g/ | B/g/c/d/e/c/ | =A/f/B/c/d/B/ | G/e/=A/B/c/A/ | ^F/d/G/=A/B/G/ | D/c/B/=A/G/^F/ | %350
 G3- | G/c'/=b/=a/g/f/ | e2 f | g/B/A z | f/A/G z | e/G/F z | d/F/E z | z/ g/f/e/d/c/ | %358
 =B/c/d/B/G- | G/c/B/A/G/F/ | E2 F | G/[I:staff +1]B,/A,[I:staff -1] z | %362
 F/[I:staff +1]A,/G,[I:staff -1] z | E/[I:staff +1]G,/F,[I:staff -1] z | %364
 D/[I:staff +1]F,/E,[I:staff -1] z | z[I:staff +1] [E,A,C][D,G,=B,] | !fermata![E,G,C]3 | %367
[I:staff -1] z3 |[M:2/4]"^Capriccio"[Q:1/4=120] z G c2- | cd/c/ =B/=A/G/F/ | Eg Df | %371
 e/d/c/d/ =e/^f/g/=a/ | b/g/^f/g/ d/g/f/g/ | c'/g/^f/g/ =a/g/f/=e/ | d g2 ^f | g z z2 | %376
 z/ c/^F/G/ =A/B/c- | c/B/=A/B/ c/d/=e/^f/ | g^f/g/- g2- | g=e/g/- g2- | g=e/f/- f2- | fd/f/- f2- | %382
 f/e/d/f/ e/d/c/=B/ | c/=B/c/d/ e/f/g- | g/f/e/g/ f/e/d/c/ | =B/=A/B/c/ d/e/f- | %386
 f/a/g/f/ e/d/c/B/ | A/c/f/e/ d/c/=B/d/ | g/f/e/g/ f/e/d/f/ | e2 z2 | e/c/=a/e/ c'/e/d/c/ | %391
 d/B/=A/B/ F/B/A/B/ | d/B/g/d/ b/d/c/B/ | c/=A/G/A/ ^F/A/G/A/ | c/=A/^f/c/ =a/c/B/A/ | Bd g2- | %396
 g=a/g/ ^f/=e/d/c/ | Bd' =Ac' | Gb/=a/ gb | =eg Be | Fa/g/ fa | df Ad | E2 z c | A2 z2 | z G c2- | %405
 cd/c/ =B/=A/G/F/ | Eg Df- | f/e/d/f/ e/d/c/B/ | A/G/A/B/ c/d/e- | e/d/c/e/ d/c/B/A/ | %410
 G/F/G/A/ B/c/_d- | d/c/B/_d/ c/B/A/G/ | A4- | AG G2- | GA/G/ F/E/D/C/ | G4 | z G c2- | %417
 cd/c/ =B/=A/G/F/ | Eg Df | e/d/c/d/ =e/^f/g/=a/ | b/g/^f/g/ d/g/f/g/ | c'/g/^f/g/ =a/g/f/=e/ | %422
 d g2 ^f | g z z2 | z/ c/^F/G/ =A/B/c- | c/B/=A/B/ c/d/=e/^f/ | g^f/g/- g2- | g=e/g/- g2- | %428
 g=e/f/- f2- | fd/f/- f2- | f/e/d/f/ e/d/c/=B/ | c/=B/c/d/ e/f/g- | g/f/e/g/ f/e/d/c/ | %433
 =B/=A/B/c/ d/e/f- | f/a/g/f/ e/d/c/B/ | A/c/f/e/ d/c/=B/d/ | g/f/e/g/ f/e/d/f/ | e2 z2 | %438
 e/c/=a/e/ c'/e/d/c/ | d/B/=A/B/ F/B/A/B/ | d/B/g/d/ b/d/c/B/ | c/=A/G/A/ ^F/A/G/A/ | %442
 c/=A/^f/c/ =a/c/B/A/ | Bd g2- | g=a/g/ ^f/=e/d/c/ | Bd' =Ac' | Gb/=a/ gb | =eg Be | Fa/g/ fa | %449
 df Ad | E2 z c | A2 z2 | z G c2- | cd/c/ =B/=A/G/F/ | Eg Df- | f/e/d/f/ e/d/c/B/ | %456
 A/G/A/B/ c/d/e- | e/d/c/e/ d/c/B/A/ | G/F/G/A/ B/c/_d- | d/c/B/_d/ c/B/A/G/ | A4- | AG G2- | %462
 GA/G/ F/E/D/C/ | G4 | z d G2- | GF/G/ =A/=B/c/d/ | eC fD | g/a/g/f/ e/d/c/B/ | Af G=e | %469
 f/c'/=e/f/ z/ c'/e/f/- | f z z2 | z f/g/ a/b/c'/d/ | e z z2 | z e/f/ g/a/b/g/ | a z z2 | %475
 z/ g/f/e/ d/c/=B/=A/ | =B/c/d/e/ f2- | f/e/=B/c/ z/ e/B/c/ | z/ d/=B/c/ z/ c/B/c/- | cg df- | %480
 fe/f/ g2- | gf ce- | ed/e/ f2- | fe/d/ c/B/=A/G/ | c4- | c3 c | B2 =A2 | z/ =a/^f/g/ z/ a/f/g/ | %488
 z g e2- | e d2 c- | ce dc | Bg =A^f | g2 z f | =B2 z2 | z g c2- | cB/c/ d/=e/f/g/ | %496
 a<c' a/c'/b/c'/ | a<c' a/b/a/b/ | g<b g/b/a/b/ | g<b g/a/g/a/ | f<a f/a/g/a/ | f<a f/g/f/g/ | %502
 e/g/d/g/ c/f/B/e/ | A/c/f/e/ f2 | z c g2- | ga/g/ f/e/d/c/ | =B2 z e | c2 z2 | z G f2- | %509
 fd g[Af] | [Ge]2 [Fd]2 | [EGc]4 | z d G2- | GF/G/ =A/=B/c/d/ | eC fD | g/a/g/f/ e/d/c/B/ | %516
 Af G=e | f/c'/=e/f/ z/ c'/e/f/- | f z z2 | z f/g/ a/b/c'/d/ | e z z2 | z e/f/ g/a/b/g/ | a z z2 | %523
 z/ g/f/e/ d/c/=B/=A/ | =B/c/d/e/ f2- | f/e/=B/c/ z/ e/B/c/ | z/ d/=B/c/ z/ c/B/c/- | cg df- | %528
 fe/f/ g2- | gf ce- | ed/e/ f2- | fe/d/ c/B/=A/G/ | c4- | c3 c | B2 =A2 | z/ =a/^f/g/ z/ a/f/g/ | %536
 z g e2- | e d2 c- | ce dc | Bg =A^f | g2 z f | =B2 z2 | z g c2- | cB/c/ d/=e/f/g/ | %544
 a<c' a/c'/b/c'/ | a<c' a/b/a/b/ | g<b g/b/a/b/ | g<b g/a/g/a/ | f<a f/a/g/a/ | f<a f/g/f/g/ | %550
 e/g/d/g/ c/f/B/e/ | A/c/f/e/ f2 | z c g2- | ga/g/ f/e/d/c/ | =B2 z e | c2 z2 | z G f2- | %557
 fd g[Af] | [Ge]2 [Fd]2 | !fermata![EGc]4 |] %560
V:2
 [Gc]2 z/ c/=B/>c/ d2 z/ d/d/>e/ | f>f f z [Gc]2 z/ e/e/>f/ | g2 z/ G/G/>A/ B>B _d/c/4B/<c/G/4 | %3
 [Ac]2 z2 z/ F/F/>G/ G2 | z/ E/E/>F/ F2 G/>=A/G/>A/ =B2- | B>D F>A G/>F/E/>D/ E/>D/E/>F/ | %6
 c>c e/d/4c/<d/=A/4 d4 | x8 | x8 | x8 | x8 | x8 | x8 | x8 | x8 | x8 | x8 | x8 | x8 | x8 | x8 | x8 | %22
 x8 | x8 | x8 | x8 | x8 | x8 | z2 z G- G2 D2 |[M:3/4] D z z4 | x6 | x6 | x6 | x6 | x6 | x6 | x6 | %37
 x6 | x6 | x6 | x6 | x6 | x6 | x6 | x6 | x6 | x6 | x6 | x6 | x6 | x6 | x6 | x6 | x6 | x6 | x6 | %56
 x6 | x6 | x6 | x6 | x6 | x6 | x6 | x6 | x6 | x6 | x6 | x6 | x6 | x6 | x6 | x6 | x6 | x6 | x6 | %75
 x6 | x6 | x6 | x6 | x6 | x6 | x6 | x6 | x6 | x6 | x6 | x6 | x6 | x6 | z z/ [E=A]/ [DG]4 | %90
 [EG]4 z2 |[M:2/2] x8 | x8 | x8 | x8 | x8 | z/ =B/c/G/ A/E/F z/ G/A/F/ G/D/E- | %97
 E/F/4G/4A/F/ D<F- F/F/E/D/ EF | x8 | z4 z/ =A/B- B^F | G2 z2 =A2 z2 | x8 | x8 | x8 | x8 | x8 | %106
 x8 | z GG^F z/ D3/2- D/ z/ z | x8 | x8 | x8 | x8 | z/ =B/c/G/ A/E/F z/ G/A/F/ G/D/E- | %113
 E/F/4G/4A/F/ D<F- F/F/E/D/ EF | x8 | z4 z/ =A/B- B^F | G2 z2 =A2 z2 | x8 | x8 | x8 | x8 | x8 | %122
 x8 | z GG^F z/ D3/2- D/ x3/2 | x8 | x8 | x8 | x8 | x8 | x8 | x8 | x8 | x8 | x8 | x8 | x8 | x8 | %137
 x8 | x8 | z !arpeggio![Gce] [Gc][F=B] [EG]2 z/ z/ z | x8 | x8 | x8 | x8 | x8 | x8 | x8 | x8 | x8 | %149
 x8 | x8 | x8 | x8 | x8 | x8 | z !arpeggio![Gce] [Gc][F=B] [EG]2 x2 |[M:3/2] x12 | G2 z2 z4 z f3- | %158
 ffed e2 c2- c c2 d | =B4- BB c2 z2 =A2 | z4 z GDF E2 G2- | G z2 z2 dec =B4 | c4 z8 | %163
 !arpeggio![Beg]2 z2 z/ f/e/d/eB c4- | c/c/B/=A/BF DF B2 G3 A | ^F4 G2 z2 ^c4 | d8- d2 z2 | x12 | %168
 z2 z/ F/E/D/ EC [=B,D]4 z z | G2 z2 z4 z f3- | ffed e2 c2- c c2 d | =B4- BB c2 z2 =A2 | %172
 z4 z GDF E2 G2- | G z2 z2 dec =B4 | c4 z8 | !arpeggio![Beg]2 z2 z/ f/e/d/eB c4- | %176
 c/c/B/=A/BF DF B2 G3 A | ^F4 G2 z2 ^c4 | d8- d2 z2 | x12 | z2 z/ F/E/D/ EC [=B,D]4 x2 | %181
 =B4[I:staff +1] =B,CDE[I:staff -1] FDEF | %182
[I:staff +1] C/4=B,/4C/4B,/4C/4B,/4C/4B,/4[I:staff -1] z2 z8 | c3 f- ff/e/ d/e/f =B4 | %184
 c2 z2 z4 z C _D2- | D/_D/C/B,/=EF G4 z B3 | c4 z =e f2- ff e2 | f2 z2 z4 z/ B/A/G/AF | %188
 G6 z/ f/e/d/ e c2 d | =B4 c2 =A2 ^F4 | G4 z GDF E4- | EA, D2 z C3 =B4 | %192
 z2 z/ B/A/G/ AF [EG]4 z z | =B4[I:staff +1] =B,CDE[I:staff -1] FDEF | %194
[I:staff +1] C/4=B,/4C/4B,/4C/4B,/4C/4B,/4[I:staff -1] z2 z8 | c3 f- ff/e/ d/e/f =B4 | %196
 c2 z2 z4 z C _D2- | D/_D/C/B,/=EF G4 z B3 | c4 z =e f2- ff e2 | f2 z2 z4 z/ B/A/G/AF | %200
 G6 z/ f/e/d/ e c2 d | =B4 c2 =A2 ^F4 | G4 z GDF E4- | EA, D2 z C3 =B4 | z2 z/ B/A/G/ AF [EG]4 x2 | %205
 x12 |[M:3/4] G2 F2 z2 | G2 e2 z2 | =A2 =B2 c2 | x6 | x6 | x6 | x6 | x6 | G2 F2 z2 | G2 e2 z2 | %216
 =A2 =B2 c2 | x6 | x6 | x6 | x6 | x6 | x6 | x6 | x6 | x6 | x6 | x6 | x6 | x6 | x6 | x6 | x6 | x6 | %234
 x6 | x6 | x6 | x6 | x6 | x6 | x6 | x6 | x6 | x6 | x6 | x6 | x6 | x6 | x6 | x6 | x6 | x6 | x6 | %253
 x6 | x6 |[M:3/8] x3 | x3 | x3 | x3 | x3 | x3 | x3 | x3 | x3 | x3 | x3 | x3 | x3 | x3 | x3 | x3 | %271
 x3 | x3 | x3 | x3 | x3 | x3 | x3 | x3 | x3 | x3 | x3 | x3 | x3 | x3 | x3 | x3 | x3 | x3 | x3 | %290
 x3 | x3 | x3 | x3 | x3 | x3 | x3 | x3 | x3 | x3 | x3 | x3 | x3 | x3 | x3 | x3 | x3 | x3 | x3 | %309
 x3 | x3 | x3 | x3 | x3 | x3 | x3 | x3 | x3 | x3 | x3 | x3 | x3 | x3 | x3 | x3 | x3 | x3 | x3 | %328
 x3 | x3 | x3 | x3 | x3 | x3 | x3 | x3 | c3- | c2 F | B3- | B=A/G/^F/G/ | x3 | x3 | x3 | x3 | x3 | %345
 x3 | x3 | x3 | x3 | x3 | x3 | x3 | x3 | x3 | x3 | x3 | x3 | x3 | x3 | x3 | x3 | x3 | x3 | x3 | %364
 x3 | x3 | x3 | x3 |[M:2/4] x4 | x4 | x4 | x4 | z D G2- | G=A/G/ ^F/=E/D/C/ | %374
[I:staff +1] B,[I:staff -1]d[I:staff +1] =A,[I:staff -1]c- | c/B/=A/c/ B/A/G/F/ | EC z ^F | %377
 G z z =A | B<d B/_d/c/d/ | B<_d B/c/B/c/ | A<c A/c/B/c/ | A<B A/B/A/B/ | G z z2 | %383
 z E/F/ G/=A/=B/c/ | d z z2 | z D/E/ F/G/=A/=B/ | c z z2 | x4 | z c2 =B | z/ c/=B/c/ G/c/B/c/ | %390
 x4 | x4 | x4 | x4 | x4 | x4 | x4 | x4 | x4 | x4 | x4 | x4 |[I:staff +1] G,B,[I:staff -1] E2- | %403
 EF/E/ D/C/B,/A,/ | G,2 z C | F2 z2 | z[I:staff +1] E, F,G,- | G,G, C2- | %408
 C[I:staff -1]C/D/ E/F/G/A/ | B[I:staff +1]F, B,2- | B,[I:staff -1]B,/C/ _D/E/F/G/ | %411
 A[I:staff +1]G, F,=E, |[I:staff -1] F,/F/=E/G/ F/_E/D/C/ | B,2 z E | C4 | =B,4 | x4 | x4 | x4 | %419
 x4 | z D G2- | G=A/G/ ^F/=E/D/C/ |[I:staff +1] B,[I:staff -1]d[I:staff +1] =A,[I:staff -1]c- | %423
 c/B/=A/c/ B/A/G/F/ | EC z ^F | G z z =A | B<d B/_d/c/d/ | B<_d B/c/B/c/ | A<c A/c/B/c/ | %429
 A<B A/B/A/B/ | G z z2 | z E/F/ G/=A/=B/c/ | d z z2 | z D/E/ F/G/=A/=B/ | c z z2 | x4 | z c2 =B | %437
 z/ c/=B/c/ G/c/B/c/ | x4 | x4 | x4 | x4 | x4 | x4 | x4 | x4 | x4 | x4 | x4 | x4 | %450
[I:staff +1] G,B,[I:staff -1] E2- | EF/E/ D/C/B,/A,/ | G,2 z C | F2 z2 | z[I:staff +1] E, F,G,- | %455
 G,G, C2- | C[I:staff -1]C/D/ E/F/G/A/ | B[I:staff +1]F, B,2- | B,[I:staff -1]B,/C/ _D/E/F/G/ | %459
 A[I:staff +1]G, F,=E, |[I:staff -1] F,/F/=E/G/ F/_E/D/C/ | B,2 z E | C4 | =B,4 | %464
[I:staff +1] =B,2[I:staff -1] z[I:staff +1] D | G, C2 =B, | %466
[I:staff -1] z/[I:staff +1] G,/A,/G,/[I:staff -1] z/[I:staff +1] F,/G,/F,/ | E,[I:staff -1]G C2- | %468
 CB,/C/ D/=E/F/G/ | F z G z | c/_d/c/B/ A/G/F/E/ | D/C/D/E/ F/G/A- | A/c/B/A/ G/F/E/D/ | %473
 C/=B,/C/D/ E/F/G- | G/B/A/G/ F/E/D/C/ |[I:staff +1] =B,[I:staff -1] z z2 | z2 z d | G2 F2 | %478
 E2 D2 | Ee =Bd | d3 c/B/ | =A3 c- | c3 B/A/ | G2 z2 | z B =AG | ^F=A D2- | DC/D/ =E/^F/G/=A/ | %487
 B[I:staff +1]G,[I:staff -1] c[I:staff +1]=A, |[I:staff -1] d3 c | ^F B2 =A- | A^F G=A | %491
 D z z/ e/d/c/ | =Bd G2- | GF/G/ =A/=B/c/d/ | e/=B,/C/D/ E/F/G/A/ | B/A/G/A/ B/c/d/=e/ | %496
 f=e/f/- f2- | f=e/f/- f2- | fd/e/- e2- | ed/e/- e2- | ec/d/- d2- | dc/d/- d2 | cB AG | %503
 F2 z/ c/=B/d/ | G2 z e | c2 z2 | z D G2- | GA/G/ F/E/D/C/ | =B,2 z d | G=B cd- | d c2 =B | x4 | %512
[I:staff +1] =B,2[I:staff -1] z[I:staff +1] D | G, C2 =B, | %514
[I:staff -1] z/[I:staff +1] G,/A,/G,/[I:staff -1] z/[I:staff +1] F,/G,/F,/ | E,[I:staff -1]G C2- | %516
 CB,/C/ D/=E/F/G/ | F z G z | c/_d/c/B/ A/G/F/E/ | D/C/D/E/ F/G/A- | A/c/B/A/ G/F/E/D/ | %521
 C/=B,/C/D/ E/F/G- | G/B/A/G/ F/E/D/C/ |[I:staff +1] =B,[I:staff -1] z z2 | z2 z d | G2 F2 | %526
 E2 D2 | Ee =Bd | d3 c/B/ | =A3 c- | c3 B/A/ | G2 z2 | z B =AG | ^F=A D2- | DC/D/ =E/^F/G/=A/ | %535
 B[I:staff +1]G,[I:staff -1] c[I:staff +1]=A, |[I:staff -1] d3 c | ^F B2 =A- | A^F G=A | %539
 D z z/ e/d/c/ | =Bd G2- | GF/G/ =A/=B/c/d/ | e/=B,/C/D/ E/F/G/A/ | B/A/G/A/ B/c/d/=e/ | %544
 f=e/f/- f2- | f=e/f/- f2- | fd/e/- e2- | ed/e/- e2- | ec/d/- d2- | dc/d/- d2 | cB AG | %551
 F2 z/ c/=B/d/ | G2 z e | c2 z2 | z D G2- | GA/G/ F/E/D/C/ | =B,2 z d | G=B cd- | d c2 =B | x4 |] %560
V:3
 [E,G,C]2 z2 [D,F,=A,=B,]2 z2 | z2 [D,F,=B,]2 [E,G,C]2 z2 | [=E,G,C]2 z2 z2 [G,C]2 | %3
 [F,A,C]2 z2 z/ [D,A,]/[D,A,]/>[D,G,]/ [D,G,]2 | z/ G,/G,/>F,/ F,2- F,2 z/ F,/F,/>G,/ | %5
 A,>A,- A,/G,/4F,/4G,/D,/ E,2 z2 | z2 [C,E,=A,]2 [D,G,]4 | C,CF,G, E,C,E,G, | %8
 CA,E,F, G,G,, z/ F/E/D/ | EG =EC FA FC | DF DB, EG EC | A,C FA, G,C EG, | F,A, G,F, E,G, F,E, | %13
 D,F, A,C, =B,,D, G,D, | E,A,, F,,G,, C,,2- C,,/D,,/4E,,/4F,,/4G,,/4=A,,/4=B,,/4 | %15
 C,C B,A, G,B, G,E, | A,C A,F, B,A, G,F, | =E,G, CE, F,A, F,_D, | %18
 B,,G,, C,C,, F,,/G,,/4A,,/4B,,/4C,/4D,/4=E,/4 F,_E, | D,F, D,B,, G,B, E,G, | %20
 =A,,^F, G,G,, D,=A, CD, | G,=A, B,=B, CD EC | A,G, DD, G,A, =B,G, | CE C=A, B,D B,G, | %24
 =A,C A,^F, G,B, G,E, | %25
 C,/D,/4E,/4F,/4G,/4A,/4B,/4 C/C,/C- C/4C,/4D,/4E,/4F,/4G,/4A,/4B,/4 C/C,/C- | %26
 CC, B,,B, ^F,D, G,E, | !fermata![=E,G,]2 z2 [G,B,D]4 | ^C2- C>C D=C/B,/ =A,/B,/A, | %29
[M:3/4] [G,=B,] z z4 | z6 | z6 |[K:treble] z C/D/ EF GA | B/A/G/A/ Bc _dG | B=E GC c/B/A/G/ | %35
 AF GA BA | GE FG AG | FE FD EF | GG,/=A,/ =B,C DE | F/E/D/E/ FG AD | F=B, DG, G/F/E/D/ | %41
[K:bass] E/D/C- C/E/D/C/ B,/=A,/G,/F,/ | D/C/B,- B,/D/C/B,/ =A,/G,/^F,/G,/ | %43
 C/B,/=A,- A,/C/B,/A,/ G,/^F,/=E,/D,/ | B,D G,B, =E,^C | DD,- D,C,/B,,/ =A,,/G,,/^F,,/=E,,/ | %46
 D,,2- D,,/=E,,/^F,,/G,,/ =A,,/B,,/C,/A,,/ | ^F,,E,- E,/=A,,/B,,/C,/ B,,/A,,/G,,/F,,/ | %48
 G,,2 z/ G,/A,/B,/ A,/G,/F,/E,/ | D,F, D,B,, C,D, | E,E,, z/ E,/F,/G,/ F,/E,/D,/C,/ | %51
 =B,,D, _B,,G,, =B,,D, | C,C,, z/ D/E/F/ ED | CC, z/ A,/B,/C/ B,A, | G,C, z/ D/=E/F/ ED | %55
 CC, z/ D,/=E,/F,/ E,C, | F,F,, z/[I:staff -1] G/A/B/ AG | F[I:staff +1]F, z/ _D/E/F/ ED | %58
[I:staff -1] F[I:staff +1]F, z/ _D/E/F/ E=D |[I:staff -1] F[I:staff +1]F, z/ G,/=A,/B,/ A,F, | %60
 B,/C/_D- D/C/B,/A,/ G,/F,/G,/B,/ | A,/B,/C- C/B,/A,/G,/ F,/=E,/F,/A,/ | %62
 G,/_D/G,/F,/ G,/A,/B,/C/ B,/A,/G,/F,/ | CB,/A,/ G,/C/B,/A,/ G,/F,/=E,/D,/ | %64
 C,2- C,/D,/=E,/F,/ G,/A,/B,/G,/ | =E,_D- D/G,/A,/B,/ A,/G,/F,/E,/ | F,/G,/A,/F,/ D,F, B,,A, | %67
 E,/F,/G,/E,/ C,E, A,,G, | D,/E,/F,/D,/ =B,,D, G,,F, | C,/D,/E,/C,/ A,,/C,/G,,/C,/ ^F,,/E,/D,/C,/ | %70
 =B,,/=A,,/G,,/A,,/ B,,C, D,E, | F,/E,/D,/E,/ F,G, A,D, | F,=B,, D,G,, G,/F,/E,/D,/ | %73
 E,/D,/C,/D,/ E,F, G,A, | B,/A,/G,/F,/ E,/B,/F,/E,/ _D,/B,/E,/D,/ | C,/B,,/A,,/B,,/ C,D, =E,F, | %76
 G,/F,/=E,/D,/ C,/G,/_D,/C,/ B,,/G,/C,/B,,/ | A,,/F,/A,,/G,,/ F,,/C,/_D,/G,,/ =A,,/E,/F,/=B,,/ | %78
 C,/F,/E,/D,/ C,/G,/A,/D,/ E,/=B,/C/F,/ | G,G,, z/[I:staff -1] =A/=B/c/ BA | %80
 G[I:staff +1]G, z/[I:staff -1] E/F/G/ FE | D[I:staff +1]G, z/ =A,/=B,/C/ B,A, | %82
 G,G,, z[I:staff -1] G/F/ E/D/C/=B,/ |[I:staff +1] CC,/D,/ E,F, G,A, | B,/A,/G,/A,/ B,C _DG, | %85
 B,=E, G,C, C/B,/A,/G,/ | A,2- A,/B,/A,/G,/ F,/G,/A,/F,/ | %87
 G,/F,/E,/D,/ C,/B,,/A,,/G,,/ F,,/F,/=E,/F,/ | A,/F,/=E,/F,/ =B,,/F,/_E,/D,/ E,/G,/C,/E,/ | %89
 ^F,,>^F, G,2 G,,2 | C,,4 z2 |[M:2/2] z4 z2 z/ z/ z | %92
 C,C,,[K:treble] z/ A/G/F/ G/D/E/=B,/ C/F/E/D/ |[K:bass] E/=B,/C/G,/ A,F, G,G,,- G,,/F,/E,/D,/ | %94
 E,/=B,,/C,/G,,/ A,,/G,/F,/E,/ F,/C,/D,/=A,,/ B,,/A,/G,/F,/ | %95
 G,/D,/E,/=B,,/ C,/B,/A,/G,/ A,/E,/F,/C,/ D,=B, | CE F,A, =B,,D, E,,G,, | A,,F,, G,,G, C,G, C2- | %98
 C3/2G,/4F,/4 E,/4F,/4G,/C,/4D,/4E,/ G,,3/2B,,/4A,,/4 G,,/4A,,/4B,,/E,,/4F,,/4G,,/ | %99
 =A,,,C,, F,,=A,, B,,3/2F/4E/4 D/4E/4F/B,/4C/4D/ | E,/G,/=A,/B,/ C/D/E/C/ ^F,/A,/B,/C/ D/=E/^F/D/ | %101
 G,/B,/C/D/ =E/^F/G/_E/ =A,/C/D/E/ D/C/B,/A,/ | B,/C/D/=A,/ B,/E/D/C/ D/A,/B,/^F,/ G,/C/B,/A,/ | %103
 B,/^F,/G,/D,/ E,/4=F,/4G,/C,/4D,/4E,/ ^F,,2 z D,, | G,,B,E,D, =A,,CE,D, | B,,DE,D, C,EE,D, | %106
 [^C,,^C,]2 z C, D,=A,,^F,,D,, | G,,/=A,,/B,,/C,/ D,D,, z z/ D,/ G,/ z/ z | %108
 C,C,, z/ A/G/F/ G/D/E/=B,/ C/F/E/D/ | E/=B,/C/G,/ A,F, G,G,,- G,,/F,/E,/D,/ | %110
 E,/=B,,/C,/G,,/ A,,/G,/F,/E,/ F,/C,/D,/=A,,/ B,,/A,/G,/F,/ | %111
 G,/D,/E,/=B,,/ C,/B,/A,/G,/ A,/E,/F,/C,/ D,=B, | CE F,A, =B,,D, E,,G,, | A,,F,, G,,G, C,G, C2- | %114
 C3/2G,/4F,/4 E,/4F,/4G,/C,/4D,/4E,/ G,,3/2B,,/4A,,/4 G,,/4A,,/4B,,/E,,/4F,,/4G,,/ | %115
 =A,,,C,, F,,=A,, B,,3/2F/4E/4 D/4E/4F/B,/4C/4D/ | E,/G,/=A,/B,/ C/D/E/C/ ^F,/A,/B,/C/ D/=E/^F/D/ | %117
 G,/B,/C/D/ =E/^F/G/_E/ =A,/C/D/E/ D/C/B,/A,/ | B,/C/D/=A,/ B,/E/D/C/ D/A,/B,/^F,/ G,/C/B,/A,/ | %119
 B,/^F,/G,/D,/ E,/4=F,/4G,/C,/4D,/4E,/ ^F,,2 z D,, | G,,B,E,D, =A,,CE,D, | B,,DE,D, C,EE,D, | %122
 [^C,,^C,]2 z C, D,=A,,^F,,D,, | G,,/=A,,/B,,/C,/ D,D,, z z/ D,/ G,/ z/ z | %124
 G,,G, z/ A,/G,/F,/ G,/D,/E,/=B,,/ C,/F,,/E,,/D,,/ | %125
 C,,C, z/ _D/C/B,/ C/G,/A,/=E,/ F,/B,,/A,,/G,,/ | %126
 F,,/G,,/A,, B,,,/A,,/G,,/F,,/ G,,/A,,/B,, C,,/B,,/A,,/G,,/ | %127
 A,,/B,,/C, _D,,/C,/B,,/A,,/ B,,/C,/_D, =E,,/D,/C,/B,,/ | A,,C, F,,A,, _D,F, G,,B,,- | %129
 B,,A,,/B,,/ C,C,, F,,/C,/F,/G,/ A,/F,/A,/C/ | FA, CF, B,F DB, | EG, B,E, A,E CA, | %132
 DF, A,D, G,D =B,G, | CE, A,F, G,G,,- G,,/A,/G,/F,/ | %134
 G,/D,/E,/=B,,/ C,/F,/E,/D,/ E,/B,,/C,/G,,/ A,,/_D,/C,/_B,,/ | %135
 C,/G,,/A,,/=E,,/ F,,/B,,/A,,/G,,/ A,,/F,,/G,,/=B,,/ D,/A,,/G,,/F,,/ | %136
 E,,/G,,/C,/E,/- E,/=B,,/C,/E,,/ F,,/A,,/C,/E,/- E,/B,,/C,/F,,/ | %137
 G,,/=B,,/C,/E,/- E,/B,,/C,/G,,/ A,,/B,,/C,/E,/- E,/B,,/C,/E,/ | %138
 =A,/D,/E,/=B,,/ C,/E,/D,/C,/ B,,/G,,/A,,/E,,/ F,,/A,,/G,,/F,,/ | %139
 E,,/G,,/C,/E,/ G,G,, [C,,C,]2 z/ z/ z | G,,G, z/ A,/G,/F,/ G,/D,/E,/=B,,/ C,/F,,/E,,/D,,/ | %141
 C,,C, z/ _D/C/B,/ C/G,/A,/=E,/ F,/B,,/A,,/G,,/ | %142
 F,,/G,,/A,, B,,,/A,,/G,,/F,,/ G,,/A,,/B,, C,,/B,,/A,,/G,,/ | %143
 A,,/B,,/C, _D,,/C,/B,,/A,,/ B,,/C,/_D, =E,,/D,/C,/B,,/ | A,,C, F,,A,, _D,F, G,,B,,- | %145
 B,,A,,/B,,/ C,C,, F,,/C,/F,/G,/ A,/F,/A,/C/ | FA, CF, B,F DB, | EG, B,E, A,E CA, | %148
 DF, A,D, G,D =B,G, | CE, A,F, G,G,,- G,,/A,/G,/F,/ | %150
 G,/D,/E,/=B,,/ C,/F,/E,/D,/ E,/B,,/C,/G,,/ A,,/_D,/C,/_B,,/ | %151
 C,/G,,/A,,/=E,,/ F,,/B,,/A,,/G,,/ A,,/F,,/G,,/=B,,/ D,/A,,/G,,/F,,/ | %152
 E,,/G,,/C,/E,/- E,/=B,,/C,/E,,/ F,,/A,,/C,/E,/- E,/B,,/C,/F,,/ | %153
 G,,/=B,,/C,/E,/- E,/B,,/C,/G,,/ A,,/B,,/C,/E,/- E,/B,,/C,/E,/ | %154
 =A,/D,/E,/=B,,/ C,/E,/D,/C,/ B,,/G,,/A,,/E,,/ F,,/A,,/G,,/F,,/ | %155
 E,,/G,,/C,/E,/ G,G,, !fermata![C,,C,]2 z2 |[M:3/2] z8 z2 z z | C4 E,2 G,2 C2 =B,2 | %158
 C2- C/G,/=A,/=B,/ C[K:treble]DEC A/4G/4A/- A2 A | G6- GA ^F4 | %160
[K:bass] z/[I:staff -1] G/F/E/FD[I:staff +1] =B,4 C2 _B,2 | z C2 =B, z G, C2 G,4- | %162
 G,2 E,2 G,2 C2 C/4B,/4C/4B,/4C/4B,/4C/4B,/4 A,2 | z2 B,2 E6 =A,2 | %164
 B,2- B,/F,,/G,,/=A,,/ B,,C,D,B,, E,3 E, | z2 =A,2 D2 B,2 G,2 =E,2 | A,/ z/ z2 z z D=A,C B,4- | %167
 B, =A,3 C,B,,E,C, D,4 | z4 ^F,2 G,4 z z | C4 E,2 G,2 C2 =B,2 | %170
 C2- C/G,/=A,/=B,/ C[K:treble]DEC A/4G/4A/- A2 A | G6- GA ^F4 | %172
[K:bass] z/[I:staff -1] G/F/E/FD[I:staff +1] =B,4 C2 _B,2 | z C2 =B, z G, C2 G,4- | %174
 G,2 E,2 G,2 C2 C/4B,/4C/4B,/4C/4B,/4C/4B,/4 A,2 | z2 B,2 E6 =A,2 | %176
 B,2- B,/F,,/G,,/=A,,/ B,,C,D,B,, E,3 E, | z2 =A,2 D2 B,2 G,2 =E,2 | A,/ z/ z2 z z D=A,C B,4- | %179
 B, =A,3 C,B,,E,C, D,4 | z4 ^F,2 G,4 z z | z2 G,6- G,4- | %182
 G,2- G,/G/F/E/ DC=B,C/D/ G,/4F,/4G,/- G,2 G, | A,2 D,2 E,2 F,2 G,2 G,,2 | %184
 C,2- C,/G,,/=A,,/=B,,/ C,D,E,C, B,3 A, | G,3 F, =E,F,G,A, B,_DCB, | A,CA,F, _D,2 B,,2 C,2 C,,2 | %187
 F,,4- F,,/B,/A,/G,/F,E, D,2 B,,2 | E,2- E,/G,,/=A,,/=B,,/ C,D,E,C, A,2- A,A, | %189
 z2 D2 G2 E2 C2 =A,2 | D4 z2 G,4 C2- | C2 A,2 G,2 A,2 G,4 | z2 z2 =B,,2 C,4 z z | z2 G,6- G,4- | %194
 G,2- G,/G/F/E/ DC=B,C/D/ G,/4F,/4G,/- G,2 G, | A,2 D,2 E,2 F,2 G,2 G,,2 | %196
 C,2- C,/G,,/=A,,/=B,,/ C,D,E,C, B,3 A, | G,3 F, =E,F,G,A, B,_DCB, | A,CA,F, _D,2 B,,2 C,2 C,,2 | %199
 F,,4- F,,/B,/A,/G,/F,E, D,2 B,,2 | E,2- E,/G,,/=A,,/=B,,/ C,D,E,C, A,2- A,A, | %201
 z2 D2 G2 E2 C2 =A,2 | D4 z2 G,4 C2- | C2 A,2 G,2 A,2 G,4 | z2 z2 =B,,2 C,4 z2 | z12 | %206
[M:3/4] C,C- C/B,/A,/G,/ A,C, | =B,,G,- G,/F,/E,/D,/ E,G,, | C,,C, D,D,, E,,E, | %209
 F,/G,/A,/F,/ G,/=A,/=B,/C/ D/F/E/D/ | CC, F,/G,/A,/B,/ CF, | B,B,, E,/F,/G,/A,/ B,E, | %212
 A,A,, B,,/A,/G,/F,/ E,/D,/C,/B,,/ | E,/G,,/A,,/B,,/ E,,G,,/B,,/ E,2 | C,C- C/B,/A,/G,/ A,C, | %215
 =B,,G,- G,/F,/E,/D,/ E,G,, | C,,C, D,D,, E,,E, | F,/G,/A,/F,/ G,/=A,/=B,/C/ D/F/E/D/ | %218
 CC, F,/G,/A,/B,/ CF, | B,B,, E,/F,/G,/A,/ B,E, | A,A,, B,,/A,/G,/F,/ E,/D,/C,/B,,/ | %221
 E,/G,,/A,,/B,,/ E,,G,,/B,,/ E,2 | E,/G,/B,/D/ E/G/E,- E,/G,/F,/E,/ | %223
 D,/F,/G,/=A,/ B,/D/D,- D,/F,/E,/D,/ | C,/G,/=A,/B,/ A,/B,/C- C/E,/D,/C,/ | %225
 B,,/F,/G,/=A,/ B,/D/B,,- B,,/_A,/G,/F,/ | =E,G, CE, F,C | E^F =A,=F B,_D | B,G, A,F, CC, | %229
 F,F,, A,,C, F,E, | D,F, B,,D, E,,D, | C,E, A,,C, D,,C, | =B,,D, G,,B,, C,,_B,, | %233
 =A,,D,, D,G,, G,=B, | CD E/G/C/B,/ A,B, | C/E/A,/G,/ F,G, A,/C/F,/E,/ | _D,F, A,,^F, G,G,, | %237
 C,2- C,/E,,/F,,/G,,/ C,,2 | E,/G,/B,/D/ E/G/E,- E,/G,/F,/E,/ | %239
 D,/F,/G,/=A,/ B,/D/D,- D,/F,/E,/D,/ | C,/G,/=A,/B,/ A,/B,/C- C/E,/D,/C,/ | %241
 B,,/F,/G,/=A,/ B,/D/B,,- B,,/_A,/G,/F,/ | =E,G, CE, F,C | E^F =A,=F B,_D | B,G, A,F, CC, | %245
 F,F,, A,,C, F,E, | D,F, B,,D, E,,D, | C,E, A,,C, D,,C, | =B,,D, G,,B,, C,,_B,, | %249
 =A,,D,, D,G,, G,=B, | CD E/G/C/B,/ A,B, | C/E/A,/G,/ F,G, A,/C/F,/E,/ | _D,F, A,,^F, G,G,, | %253
 C,2- C,/E,,/F,,/G,,/ !fermata!C,,2 | z6 |[M:3/8] z3 |[K:treble] cCD | E z F | D z E | C z D | %260
 =B, z[K:bass] C | A,F,D, | G, z/ F/E/D/ | C z2 |[K:treble] cCD | E z F | D z E | C z D | %268
 =B, z[K:bass] C | A,F,G, | C,G,,E,, | C,,2 z | G,F,E, | D,C,B,, | E,G,F, | =E,G,C, | F,A,_D, | %277
 B,C,C | B,/A,/B,/A,/G,/F,/ | B,F,A, | D,F,B,, | E,,G,B, | =E,G,C, | F,,A,C | F,A,D, | E,A,,F, | %286
 G,,G,[K:treble] z/ F/ | E/F/G/=A/=B/G/ | cCD | E z F | D z E | C z D | =B, z[K:bass] C | A,F,D, | %294
 G, z/ F/E/D/ | C z2 |[K:treble] cCD | E z F | D z E | C z D | =B, z[K:bass] C | A,F,G, | %302
 C,/E,/G,/C,/E,/G,/ | CC,C- | CC,/C/B,/A,/ | B,B,,B,- | B,B,,/B,/A,/G,/ | A,A,,A,- | %308
 A,A,,/A,/G,/F,/ | G,F,E, | B,B,,B,- | B,E,F, | G,B, z | A,G,E, | B,,B,A, | G,G,,G,- | G,A,,G,- | %317
 G,B,,F, | E,2 z/ D,/ | E,/F,/E,/D,/C,/=B,,/ | C,/G,/=A,/=B,/C/D/ | EF, z/ E/ | DE, z/ D/ | %323
 CD, z/ C/ | =B,C, z/ E,/ | A,G,F, | G,/F,/G,/A,/F,/G,/ | E,/D,/E,/F,/D,/E,/ | C,CD | E z F | %330
 D z E | C z D | =B, z C | A,F,G, | C,G,,/F,,/E,,/D,,/ | C,,CB, | =A,G,F, | B,,B,=A, | G,F,E, | %339
 =A,,=A,G, | ^F,=E,D, | G,E,C, | D,/E,/D,/C,/B,,/=A,,/ | G,,G,=A, | B,2 C | DE, z | CD, z | %347
 B,C, z | =A,B,, z | z C,D, | G,,/A,/G,/F,/E,/D,/ | E,F,G, | C,/[I:staff -1]c/=B/=A/G/F/ | %353
 E>GF/E/ | D>FE/D/ | C>ED/C/ | =B,>DC/_B,/ | A,AF | G/A/G/F/E/D/ |[I:staff +1] C/E/D/C/B,/A,/ | %360
 G,/C/B,/A,/G,/F,/ | E,>G,F,/E,/ | D,>F,E,/D,/ | C,>E,D,/C,/ | =B,,>D,C,/_B,,/ | A,,/C,/F,,G,, | %366
 !fermata!C,,3 | z3 |[M:2/4] E,2 z E, | F,2 z =B, | C3 =B, | C z z2 | G,2 z G, | =A,2 z2 | %374
 z B,, C,D, | G,,D, G,2- | G,=A,/G,/ ^F,/=E,/D,/C,/ | B,,D =A,,C | G,,B, F,,A, | =E,,G, C,,=E, | %380
 F,,A, E,,G, | D,,F, B,,,D, | E,,E, F,G, | A, z z2 | z D, E,F, | G, z z2 | z G, C2- | %387
 CD/C/ =B,/=A,/G,/F,/ | E,G D,F | C,E/D/ CE | =A,C F,A, | B,,D/C/ B,D | G,B, E,G, | %393
 =A,,C/B,/ =A,C | ^F,=A, D,F, | z/ G,/^F,/G,/ D,/G,/F,/G,/ | C,/G,/^F,/G,/ =A,/G,/F,/=E,/ | %397
 D, G,2 ^F, | z/ G,/^F,/G,/ D,/G,/F,/G,/ | B,/G,/=E/B,/ G/B,/A,/G,/ | A,/F,/=E,/F,/ C,/F,/E,/F,/ | %401
 A,/F,/D/A,/ F/A,/G,/F,/ | z/ F,/E,/D,/ C,/B,,/A,,/G,,/ | F,,/E,/D,/C,/ B,,/A,,/G,,/F,,/ | %404
 E,,/D,/C,/B,,/ A,,/G,,/F,,/E,,/ | D,,/C,/B,,/A,,/ G,,/F,,/E,,/D,,/ | C,, C,2 =B,, | %407
 C,2 z/ C,/D,/E,/ | F, z z2 | B,,2 z/ B,,/C,/D,/ | E, z z2 | z A,, B,,C, | F,,C, F,2- | %413
 F,/E,/D,/F,/ E,/D,/C,/B,,/ | A,,G,, A,,/4G,,/4A,,3/2 | G,,4 | E,2 z E, | F,2 z =B, | C3 =B, | %419
 C z z2 | G,2 z G, | =A,2 z2 | z B,, C,D, | G,,D, G,2- | G,=A,/G,/ ^F,/=E,/D,/C,/ | B,,D =A,,C | %426
 G,,B, F,,A, | =E,,G, C,,=E, | F,,A, E,,G, | D,,F, B,,,D, | E,,E, F,G, | A, z z2 | z D, E,F, | %433
 G, z z2 | z G, C2- | CD/C/ =B,/=A,/G,/F,/ | E,G D,F | C,E/D/ CE | =A,C F,A, | B,,D/C/ B,D | %440
 G,B, E,G, | =A,,C/B,/ =A,C | ^F,=A, D,F, | z/ G,/^F,/G,/ D,/G,/F,/G,/ | %444
 C,/G,/^F,/G,/ =A,/G,/F,/=E,/ | D, G,2 ^F, | z/ G,/^F,/G,/ D,/G,/F,/G,/ | %447
 B,/G,/=E/B,/ G/B,/A,/G,/ | A,/F,/=E,/F,/ C,/F,/E,/F,/ | A,/F,/D/A,/ F/A,/G,/F,/ | %450
 z/ F,/E,/D,/ C,/B,,/A,,/G,,/ | F,,/E,/D,/C,/ B,,/A,,/G,,/F,,/ | E,,/D,/C,/B,,/ A,,/G,,/F,,/E,,/ | %453
 D,,/C,/B,,/A,,/ G,,/F,,/E,,/D,,/ | C,, C,2 =B,, | C,2 z/ C,/D,/E,/ | F, z z2 | %457
 B,,2 z/ B,,/C,/D,/ | E, z z2 | z A,, B,,C, | F,,C, F,2- | F,/E,/D,/F,/ E,/D,/C,/B,,/ | %462
 A,,G,, A,,/4G,,/4A,,3/2 | G,,4 | G,2 z F, | E,2 D,2 | C, z D, z | E,2 z =E, | F,2 B,C | %469
[I:staff -1] A[I:staff +1]F,[I:staff -1] B[I:staff +1]G, |[I:staff -1] A[I:staff +1]F, G,A, | %471
 B, z z2 | z E, F,G, | A, z z2 | z D, E,F, | G,D, G,,2- | G,,F,,/G,,/ =A,,/=B,,/C,/D,/ | %477
 E,C,, F,D,, | G,E,, A,F,, | G,/G,,/G,/A,/ G,/F,/E,/D,/ | C,/G,/C/D/ C/B,/=A,/G,/ | %481
 F,/F,,/F,/G,/ F,/E,/D,/C,/ | B,,/F,/B,/C/ B,/A,/G,/F,/ | E,/E,,/E,/F,/ E,/D,/C,/B,,/ | %484
 =A,,/G,,/A,,/B,,/ C,/D,/E,/C,/ | D,/C,/D,/=E,/ ^F,/G,/=A,/F,/ | G,E, C,D, | G,, z E, z | %488
 B,,/G,/^F,/G,/ C,/=A,/F,/G,/ | D,/B,/^F,/G,/ E,/C/F,/G,/ | ^F,,/E,/D,/C,/ B,,/=A,,/G,,/F,,/ | %491
 G,,/F,,/E,,/D,,/ C,,D,, | G,,/^F,,/G,,/=A,,/ =B,,/C,/D,/E,/ | F,/E,/D,/E,/ F,/G,/=A,/=B,/ | %494
 C z z C | =E, z2 C | F,A E,G | D,F B,,D | E,G D,F | C,E A,,C | D,F C,E | =B,,D G,,=B, | C,G, C2- | %503
 CD/C/ =B,/=A,/G,/F,/ | E,/D,/C,/D,/ E,/F,/G,/E,/ | A,/G,/F,/G,/ A,2- | %506
 A,/A,/G,/F,/ E,/D,/C,/B,,/ | A,,/G,/F,/E,/ D,/C,/=B,,/=A,,/ | G,,/E,/D,/C,/ =B,,/=A,,/G,,/F,,/ | %509
 E,,/A,,/G,,/F,,/ E,,/D,,/E,,/F,,/ | G,,/C,/E,/^F,/ G,G,, | [C,,C,]4 | G,2 z F, | E,2 D,2 | %514
 C, z D, z | E,2 z =E, | F,2 B,C |[I:staff -1] A[I:staff +1]F,[I:staff -1] B[I:staff +1]G, | %518
[I:staff -1] A[I:staff +1]F, G,A, | B, z z2 | z E, F,G, | A, z z2 | z D, E,F, | G,D, G,,2- | %524
 G,,F,,/G,,/ =A,,/=B,,/C,/D,/ | E,C,, F,D,, | G,E,, A,F,, | G,/G,,/G,/A,/ G,/F,/E,/D,/ | %528
 C,/G,/C/D/ C/B,/=A,/G,/ | F,/F,,/F,/G,/ F,/E,/D,/C,/ | B,,/F,/B,/C/ B,/A,/G,/F,/ | %531
 E,/E,,/E,/F,/ E,/D,/C,/B,,/ | =A,,/G,,/A,,/B,,/ C,/D,/E,/C,/ | D,/C,/D,/=E,/ ^F,/G,/=A,/F,/ | %534
 G,E, C,D, | G,, z E, z | B,,/G,/^F,/G,/ C,/=A,/F,/G,/ | D,/B,/^F,/G,/ E,/C/F,/G,/ | %538
 ^F,,/E,/D,/C,/ B,,/=A,,/G,,/F,,/ | G,,/F,,/E,,/D,,/ C,,D,, | G,,/^F,,/G,,/=A,,/ =B,,/C,/D,/E,/ | %541
 F,/E,/D,/E,/ F,/G,/=A,/=B,/ | C z z C | =E, z2 C | F,A E,G | D,F B,,D | E,G D,F | C,E A,,C | %548
 D,F C,E | =B,,D G,,=B, | C,G, C2- | CD/C/ =B,/=A,/G,/F,/ | E,/D,/C,/D,/ E,/F,/G,/E,/ | %553
 A,/G,/F,/G,/ A,2- | A,/A,/G,/F,/ E,/D,/C,/B,,/ | A,,/G,/F,/E,/ D,/C,/=B,,/=A,,/ | %556
 G,,/E,/D,/C,/ =B,,/=A,,/G,,/F,,/ | E,,/A,,/G,,/F,,/ E,,/D,,/E,,/F,,/ | G,,/C,/E,/^F,/ G,G,, | %559
 !fermata![C,,C,]4 |] %560
V:4
 C,2 z2 C,2 z2 | z2 C,2 C,2 z2 | C,2 z2 z2 C,2 | C,2 z2 z/ C,/C,/>B,,/ B,,2 | %4
 z/ C,/C,/>C,/ C,2 D,2 z/ D,/D,/>E,/ | F,>F, =B,,>B,, C,2 z2 | z2 G,,2 G,,4 | x8 | x8 | x8 | x8 | %11
 x8 | x8 | x8 | x8 | x8 | x8 | x8 | x8 | x8 | x8 | x8 | x8 | x8 | x8 | x8 | x8 | ^C,2 z2 D,4- | %28
 D,8 |[M:3/4] G,, z z4 | x6 | x6 |[K:treble] x6 | x6 | x6 | x6 | x6 | x6 | x6 | x6 | x6 | %41
[K:bass] x6 | x6 | x6 | x6 | x6 | x6 | x6 | x6 | x6 | x6 | x6 | x6 | x6 | x6 | x6 | x6 | x6 | x6 | %59
 x6 | x6 | x6 | x6 | x6 | x6 | x6 | x6 | x6 | x6 | x6 | x6 | x6 | x6 | x6 | x6 | x6 | x6 | x6 | %78
 x6 | x6 | x6 | x6 | x6 | x6 | x6 | x6 | x6 | x6 | x6 | x6 | x6 |[M:2/2] x8 | x2[K:treble] x6 | %93
[K:bass] x8 | x8 | x8 | x8 | z6 CD | E2 z2 z/[I:staff -1] F/G/D/ E[I:staff +1] z | x4 z4 | x8 | %101
 x8 | x8 | x8 | x8 | x8 | x8 | x8 | x8 | x8 | x8 | x8 | x8 | z6 CD | %114
 E2 z2 z/[I:staff -1] F/G/D/ E[I:staff +1] z | x4 z4 | x8 | x8 | x8 | x8 | x8 | x8 | x8 | x8 | x8 | %125
 x8 | x8 | x8 | x8 | x8 | x8 | x8 | x8 | x8 | x8 | x8 | x8 | x8 | x8 | x8 | x8 | x8 | x8 | x8 | %144
 x8 | x8 | x8 | x8 | x8 | x8 | x8 | x8 | x8 | x8 | x8 | x8 |[M:3/2] x12 | z2 C,6- C,4- | %158
 C,2 z2 z8[K:treble] | x12 |[K:bass] x12 | A,2 D,2 E,3 F, G,2 G,,2 | C,6 z2 z4 | G,6 G,2 =A,2 F,2 | %164
 B,2 z2 z8 | D,8 D,4 | D,/D/C/B,/C=A, ^F,4 z2 G,2 | C,2 z2 z4 D,2 D,,2 | z2 D,4- D,4 z z | %169
 z2 C,6- C,4- | C,2 z2 z8[K:treble] | x12 |[K:bass] x12 | A,2 D,2 E,3 F, G,2 G,,2 | C,6 z2 z4 | %175
 G,6 G,2 =A,2 F,2 | B,2 z2 z8 | D,8 D,4 | D,/D/C/B,/C=A, ^F,4 z2 G,2 | C,2 z2 z4 D,2 D,,2 | %180
 z2 D,4- D,4 x2 | G3 =A, z8 | x12 | z8 G,4- | G,2 z2 z8 | x12 | x12 | x12 | x12 | G,4- G,4- G,4- | %190
 G,/G,/F,/E,/F,D, =B,,4 C,4 | F,3 D, E,2 A,F, G,2 G,,2 | C,,6- C,,4 z z | G3 =A, z8 | x12 | %195
 z8 G,4- | G,2 z2 z8 | x12 | x12 | x12 | x12 | G,4- G,4- G,4- | G,/G,/F,/E,/F,D, =B,,4 C,4 | %203
 F,3 D, E,2 A,F, G,2 G,,2 | C,,6- C,,4 x2 | x12 |[M:3/4] x6 | x6 | x6 | x6 | x6 | x6 | x6 | x6 | %214
 x6 | x6 | x6 | x6 | x6 | x6 | x6 | x6 | x6 | x6 | x6 | x6 | x6 | x6 | x6 | x6 | x6 | x6 | x6 | %233
 x6 | x6 | x6 | x6 | x6 | x6 | x6 | x6 | x6 | x6 | x6 | x6 | x6 | x6 | x6 | x6 | x6 | x6 | x6 | %252
 x6 | x6 | x6 |[M:3/8] x3 |[K:treble] x3 | x3 | x3 | x3 | x2[K:bass] x | x3 | x3 | x3 | %264
[K:treble] x3 | x3 | x3 | x3 | x2[K:bass] x | x3 | x3 | x3 | x3 | x3 | x3 | x3 | x3 | x3 | x3 | %279
 x3 | x3 | x3 | x3 | x3 | x3 | x3 | x2[K:treble] x | x3 | x3 | x3 | x3 | x3 | x2[K:bass] x | x3 | %294
 x3 | x3 |[K:treble] x3 | x3 | x3 | x3 | x2[K:bass] x | x3 | x3 | x3 | x3 | x3 | x3 | x3 | x3 | %309
 x3 | x3 | x3 | x3 | x3 | x3 | x3 | x3 | x3 | x3 | x3 | x3 | x3 | x3 | x3 | x3 | x3 | x3 | x3 | %328
 x3 | x3 | x3 | x3 | x3 | x3 | x3 | x3 | x3 | x3 | x3 | x3 | x3 | x3 | x3 | x3 | x3 | x3 | x3 | %347
 x3 | x3 | x3 | x3 | x3 | x3 | x3 | x3 | x3 | x3 | x3 | x3 | x3 | x3 | x3 | x3 | x3 | x3 | x3 | %366
 x3 | x3 |[M:2/4] C, z z C, | D,2 z2 | z E, F,G, | C,C B,=A, | x4 | x4 | x4 | x4 | x4 | x4 | x4 | %379
 x4 | x4 | x4 | x4 | x4 | x4 | x4 | x4 | x4 | x4 | x4 | x4 | x4 | x4 | x4 | x4 | G,, z B,, z | %396
 =A,, z C, z | z B,, C,D, | G,, z B,, z | z2 C, z | F, z A,, z | z2 B,, z | x4 | x4 | x4 | x4 | %406
 x4 | x4 | x4 | x4 | x4 | x4 | x4 | x4 | x4 | x4 | C, z z C, | D,2 z2 | z E, F,G, | C,C B,=A, | %420
 x4 | x4 | x4 | x4 | x4 | x4 | x4 | x4 | x4 | x4 | x4 | x4 | x4 | x4 | x4 | x4 | x4 | x4 | x4 | %439
 x4 | x4 | x4 | x4 | G,, z B,, z | =A,, z C, z | z B,, C,D, | G,, z B,, z | z2 C, z | F, z A,, z | %449
 z2 B,, z | x4 | x4 | x4 | x4 | x4 | x4 | x4 | x4 | x4 | x4 | x4 | x4 | x4 | x4 | x4 | x4 | x4 | %467
 x4 | x4 | x4 | x4 | x4 | x4 | x4 | x4 | x4 | x4 | x4 | x4 | x4 | x4 | x4 | x4 | x4 | x4 | x4 | %486
 x4 | x4 | x4 | x4 | x4 | x4 | x4 | x4 | x4 | x4 | x4 | x4 | x4 | x4 | x4 | x4 | x4 | x4 | x4 | %505
 x4 | x4 | x4 | x4 | x4 | x4 | x4 | x4 | x4 | x4 | x4 | x4 | x4 | x4 | x4 | x4 | x4 | x4 | x4 | %524
 x4 | x4 | x4 | x4 | x4 | x4 | x4 | x4 | x4 | x4 | x4 | x4 | x4 | x4 | x4 | x4 | x4 | x4 | x4 | %543
 x4 | x4 | x4 | x4 | x4 | x4 | x4 | x4 | x4 | x4 | x4 | x4 | x4 | x4 | x4 | x4 | x4 |] %560
V:5
 x8 | x8 | c2 z2 z2 B z | x8 | x8 | x8 | G2 [=Ac] z =B4 | x8 | x8 | x8 | x8 | x8 | x8 | x8 | x8 | %15
 x8 | x8 | x8 | x8 | x8 | x8 | x8 | x8 | x8 | x8 | x8 | x8 | x8 | x8 |[M:3/4] x6 | x6 | x6 | x6 | %33
 x6 | x6 | x6 | x6 | x6 | x6 | x6 | x6 | x6 | x6 | x6 | x6 | x6 | x6 | x6 | x6 | x6 | x6 | x6 | %52
 x6 | x6 | x6 | x6 | x6 | x6 | x6 | x6 | x6 | x6 | x6 | x6 | x6 | x6 | x6 | x6 | x6 | x6 | x6 | %71
 x6 | x6 | x6 | x6 | x6 | x6 | x6 | x6 | x6 | x6 | x6 | x6 | x6 | x6 | x6 | x6 | x6 | x6 | x6 | %90
 x6 |[M:2/2] x8 | x8 | x8 | x8 | x8 | x8 | x8 | x8 | x8 | x8 | x8 | x8 | x8 | x8 | x8 | x8 | %107
 z D DC z/ D/=B,- B,/ z/ z | x8 | x8 | x8 | x8 | x8 | x8 | x8 | x8 | x8 | x8 | x8 | x8 | x8 | x8 | %122
 x8 | z D DC z/ D/=B,- B,/ x3/2 | x8 | x8 | x8 | x8 | x8 | x8 | x8 | x8 | x8 | x8 | x8 | x8 | x8 | %137
 x8 | x8 | x8 | x8 | x8 | x8 | x8 | x8 | x8 | x8 | x8 | x8 | x8 | x8 | x8 | x8 | x8 | x8 | x8 | %156
[M:3/2] x12 | E2 z2 z4 z2 d2 | x12 | x12 | x12 | x12 | x12 | x12 | x12 | x12 | x12 | x12 | x12 | %169
 E2 z2 z4 z2 d2 | x12 | x12 | x12 | x12 | x12 | x12 | x12 | x12 | x12 | x12 | x12 | x12 | x12 | %183
 x12 | x12 | z8 z2 =e2 | x12 | x12 | x12 | x12 | x12 | x12 | x12 | x12 | x12 | x12 | x12 | %197
 z8 z2 =e2 | x12 | x12 | x12 | x12 | x12 | x12 | x12 | x12 |[M:3/4] x6 | x6 | x6 | x6 | x6 | x6 | %212
 x6 | x6 | x6 | x6 | x6 | x6 | x6 | x6 | x6 | x6 | x6 | x6 | x6 | x6 | x6 | x6 | x6 | x6 | x6 | %231
 x6 | x6 | x6 | x6 | x6 | x6 | x6 | x6 | x6 | x6 | x6 | x6 | x6 | x6 | x6 | x6 | x6 | x6 | x6 | %250
 x6 | x6 | x6 | x6 | x6 |[M:3/8] x3 | x3 | x3 | x3 | x3 | x3 | x3 | x3 | x3 | x3 | x3 | x3 | x3 | %268
 x3 | x3 | x3 | x3 | x3 | x3 | x3 | x3 | x3 | x3 | x3 | x3 | x3 | x3 | x3 | x3 | x3 | x3 | x3 | %287
 x3 | x3 | x3 | x3 | x3 | x3 | x3 | x3 | x3 | x3 | x3 | x3 | x3 | x3 | x3 | x3 | x3 | x3 | x3 | %306
 x3 | x3 | x3 | x3 | x3 | x3 | x3 | x3 | x3 | x3 | x3 | x3 | x3 | x3 | x3 | x3 | x3 | x3 | x3 | %325
 x3 | x3 | x3 | x3 | x3 | x3 | x3 | x3 | x3 | x3 | x3 | x3 | x3 | x3 | x3 | x3 | x3 | x3 | x3 | %344
 x3 | x3 | x3 | x3 | x3 | x3 | x3 | x3 | x3 | x3 | x3 | x3 | x3 | x3 | x3 | x3 | x3 | x3 | x3 | %363
 x3 | x3 | x3 | x3 | x3 |[M:2/4] x4 | x4 | x4 | x4 | x4 | x4 | x4 | x4 | x4 | x4 | x4 | x4 | x4 | %381
 x4 | x4 | x4 | x4 | x4 | x4 | x4 | x4 | x4 | x4 | x4 | x4 | x4 | x4 | x4 | x4 | x4 | x4 | x4 | %400
 x4 | x4 | x4 | x4 | x4 | x4 | x4 | x4 | x4 | x4 | x4 | x4 | x4 | x4 | x4 | x4 | x4 | x4 | x4 | %419
 x4 | x4 | x4 | x4 | x4 | x4 | x4 | x4 | x4 | x4 | x4 | x4 | x4 | x4 | x4 | x4 | x4 | x4 | x4 | %438
 x4 | x4 | x4 | x4 | x4 | x4 | x4 | x4 | x4 | x4 | x4 | x4 | x4 | x4 | x4 | x4 | x4 | x4 | x4 | %457
 x4 | x4 | x4 | x4 | x4 | x4 | x4 | x4 | x4 | x4 | x4 | x4 | x4 | x4 | x4 | x4 | x4 | x4 | x4 | %476
 x4 | x4 | x4 | x4 | x4 | x4 | x4 | x4 | x4 | x4 | x4 | x4 | x4 | x4 | x4 | x4 | x4 | x4 | x4 | %495
 x4 | x4 | x4 | x4 | x4 | x4 | x4 | x4 | x4 | x4 | x4 | x4 | x4 | x4 | x4 | x4 | x4 | x4 | x4 | %514
 x4 | x4 | x4 | x4 | x4 | x4 | x4 | x4 | x4 | x4 | x4 | x4 | x4 | x4 | x4 | x4 | x4 | x4 | x4 | %533
 x4 | x4 | x4 | x4 | x4 | x4 | x4 | x4 | x4 | x4 | x4 | x4 | x4 | x4 | x4 | x4 | x4 | x4 | x4 | %552
 x4 | x4 | x4 | x4 | x4 | x4 | x4 | x4 |] %560
V:6
 x8 | x8 | x8 | x8 | z/ B,,/B,,/>A,,/ B,,/4A,,/4B,,/4A,,/4B,,/4A,,/4B,,/4A,,/4 G,,2 z2 | %5
 z2 G,,2 G,,2 z2 | x8 | x8 | x8 | x8 | x8 | x8 | x8 | x8 | x8 | x8 | x8 | x8 | x8 | x8 | x8 | x8 | %22
 x8 | x8 | x8 | x8 | x8 | x8 | z6 =A,2 |[M:3/4] x6 | x6 | x6 |[K:treble] x6 | x6 | x6 | x6 | x6 | %37
 x6 | x6 | x6 | x6 |[K:bass] x6 | x6 | x6 | x6 | x6 | x6 | x6 | x6 | x6 | x6 | x6 | x6 | x6 | x6 | %55
 x6 | x6 | x6 | x6 | x6 | x6 | x6 | x6 | x6 | x6 | x6 | x6 | x6 | x6 | x6 | x6 | x6 | x6 | x6 | %74
 x6 | x6 | x6 | x6 | x6 | x6 | x6 | x6 | x6 | x6 | x6 | x6 | x6 | x6 | x6 | x6 | x6 |[M:2/2] x8 | %92
 x2[K:treble] x6 |[K:bass] x8 | x8 | x8 | x8 | x8 | x8 | x8 | x8 | x8 | x8 | x8 | x8 | x8 | x8 | %107
 x8 | x8 | x8 | x8 | x8 | x8 | x8 | x8 | x8 | x8 | x8 | x8 | x8 | x8 | x8 | x8 | x8 | x8 | x8 | %126
 x8 | x8 | x8 | x8 | x8 | x8 | x8 | x8 | x8 | x8 | x8 | x8 | x8 | x8 | x8 | x8 | x8 | x8 | x8 | %145
 x8 | x8 | x8 | x8 | x8 | x8 | x8 | x8 | x8 | x8 | x8 |[M:3/2] x12 | x12 | x5[K:treble] x7 | x12 | %160
[K:bass] x12 | x12 | x12 | x12 | x12 | x12 | x12 | x12 | G,,6- G,,4 z z | x12 | x5[K:treble] x7 | %171
 x12 |[K:bass] x12 | x12 | x12 | x12 | x12 | x12 | x12 | x12 | G,,6- G,,4 x2 | x12 | x12 | x12 | %184
 x12 | x12 | x12 | x12 | x12 | x12 | x12 | x12 | z2 G,,4 G,,4 z z | x12 | x12 | x12 | x12 | x12 | %198
 x12 | x12 | x12 | x12 | x12 | x12 | z2 G,,4 G,,4 x2 | x12 |[M:3/4] x6 | x6 | x6 | x6 | x6 | x6 | %212
 x6 | x6 | x6 | x6 | x6 | x6 | x6 | x6 | x6 | x6 | x6 | x6 | x6 | x6 | x6 | x6 | x6 | x6 | x6 | %231
 x6 | x6 | x6 | x6 | x6 | x6 | x6 | x6 | x6 | x6 | x6 | x6 | x6 | x6 | x6 | x6 | x6 | x6 | x6 | %250
 x6 | x6 | x6 | x6 | x6 |[M:3/8] x3 |[K:treble] x3 | x3 | x3 | x3 | x2[K:bass] x | x3 | x3 | x3 | %264
[K:treble] x3 | x3 | x3 | x3 | x2[K:bass] x | x3 | x3 | x3 | x3 | x3 | x3 | x3 | x3 | x3 | x3 | %279
 x3 | x3 | x3 | x3 | x3 | x3 | x3 | x2[K:treble] x | x3 | x3 | x3 | x3 | x3 | x2[K:bass] x | x3 | %294
 x3 | x3 |[K:treble] x3 | x3 | x3 | x3 | x2[K:bass] x | x3 | x3 | x3 | x3 | x3 | x3 | x3 | x3 | %309
 x3 | x3 | x3 | x3 | x3 | x3 | x3 | x3 | x3 | x3 | x3 | x3 | x3 | x3 | x3 | x3 | x3 | x3 | x3 | %328
 x3 | x3 | x3 | x3 | x3 | x3 | x3 | x3 | x3 | x3 | x3 | x3 | x3 | x3 | x3 | x3 | x3 | x3 | x3 | %347
 x3 | x3 | x3 | x3 | x3 | x3 | x3 | x3 | x3 | x3 | x3 | x3 | x3 | x3 | x3 | x3 | x3 | x3 | x3 | %366
 x3 | x3 |[M:2/4] x4 | x4 | x4 | x4 | x4 | x4 | x4 | x4 | x4 | x4 | x4 | x4 | x4 | x4 | x4 | x4 | %384
 x4 | x4 | x4 | x4 | x4 | x4 | x4 | x4 | x4 | x4 | x4 | x4 | x4 | x4 | x4 | x4 | x4 | x4 | x4 | %403
 x4 | x4 | x4 | x4 | x4 | x4 | x4 | x4 | x4 | x4 | x4 | x4 | x4 | x4 | x4 | x4 | x4 | x4 | x4 | %422
 x4 | x4 | x4 | x4 | x4 | x4 | x4 | x4 | x4 | x4 | x4 | x4 | x4 | x4 | x4 | x4 | x4 | x4 | x4 | %441
 x4 | x4 | x4 | x4 | x4 | x4 | x4 | x4 | x4 | x4 | x4 | x4 | x4 | x4 | x4 | x4 | x4 | x4 | x4 | %460
 x4 | x4 | x4 | x4 | x4 | x4 | x4 | x4 | x4 | x4 | x4 | x4 | x4 | x4 | x4 | x4 | x4 | x4 | x4 | %479
 x4 | x4 | x4 | x4 | x4 | x4 | x4 | x4 | x4 | x4 | x4 | x4 | x4 | x4 | x4 | x4 | x4 | x4 | x4 | %498
 x4 | x4 | x4 | x4 | x4 | x4 | x4 | x4 | x4 | x4 | x4 | x4 | x4 | x4 | x4 | x4 | x4 | x4 | x4 | %517
 x4 | x4 | x4 | x4 | x4 | x4 | x4 | x4 | x4 | x4 | x4 | x4 | x4 | x4 | x4 | x4 | x4 | x4 | x4 | %536
 x4 | x4 | x4 | x4 | x4 | x4 | x4 | x4 | x4 | x4 | x4 | x4 | x4 | x4 | x4 | x4 | x4 | x4 | x4 | %555
 x4 | x4 | x4 | x4 | x4 |] %560

